epam-assets/icon-sources/18/file-file_text.svg

<svg width="18" height="18" viewBox="0 0 18 18" fill="none" xmlns="http://www.w3.org/2000/svg">
<g id="18/file-file_text">
<path id="icon" fill-rule="evenodd" clip-rule="evenodd" d="M9.75 6.75H13.875L9.75 2.625V6.75ZM4.5 1.5H10.5L15 6V15C15 15.8284 14.3284 16.5 13.5 16.5H4.5C3.6675 16.5 3 15.825 3 15V3C3 2.1675 3.6675 1.5 4.5 1.5ZM11.25 13.5V12H4.5V13.5H11.25ZM13.5 10.5V9H4.5V10.5H13.5Z" fill="#6C6F80"/>
</g>
</svg>

<svg xmlns="http://www.w3.org/2000/svg" width="18" height="18" fill="none" viewBox="0 0 18 18">
  <path fill="#6C6F80" fill-rule="evenodd" d="M9.75 6.75h4.125L9.75 2.625V6.75ZM4.5 1.5h6L15 6v9a1.5 1.5 0 0 1-1.5 1.5h-9A1.5 1.5 0 0 1 3 15V3c0-.833.667-1.5 1.5-1.5Zm6.75 12V12H4.5v1.5h6.75Zm2.25-3V9h-9v1.5h9Z" clip-rule="evenodd"/>
</svg>
